X:179
T:Skylark (reel), The  
B:CRE1.156 (Fhuiseog)
F:file ID: cre.1/179skyl
S:Matthew Tiernan
M:C
L:1/8
Q:180
R:reel
K:D
agfg efdB|AFF2 DFAd|BGG2 (3EFG E2|FAA2 FAdf|
agfg (3efe dB|AFF2 DFAd|BGG2 E2ag|(3fgf eg fdd2:|
(3aba fd Adfd|(3efg ed cAAf|(3aba (3fga bged|Beed efge|
faa2  gbb2|(3fga ef dBAG|FAdc B2ag|(3fgf eg fdd2:|

%%%

